!!!COM: Haydn, Franz Joseph
!!!OTL: String Quartet in D Major
!!!OPS: Opus 71
!!!ONM: No. 2
!!!OMD: Finale: Allegretto---Vivace
!!!OMV: 4
!!!SCT: H III:70
!!!SCA: Thematisch-bibliographisches Werkevererzeichnis (A. van Hoboken)
!!!YOR: Trautwein Edition
!!!ENC: Frances Bennion
!!!CDT: 1732/3/31/-1809/5/31/
!!!CNT: Oesterreich
!!!YEC: Copyright (c) 1994, 2000 Center for Computer Assisted Research in the Humanities
!!!YEM: Rights to all derivative editions reserved.
!!!YEM: Refer to licensing agreement for further details.
!!!YEN: United States of America
**kern	**kern	**kern	**kern
*k[f#c#]	*k[f#c#]	*k[f#c#]	*k[f#c#]
*D:	*D:	*D:	*D:
*clefF4	*clefC3	*clefF	*clefF
*M6/8	*M6/8	*M6/8	*M6/8
2r	2r	2r	2r
4r	4r	4r	8a
.	.	.	8g
=1	=1	=1	=1
4D	4A	4d	8f#
.	.	.	8e
8r	8r	8r	8f#
4GG	4B	4e	8g
.	.	.	8f#
8r	8r	8r	8g
=2	=2	=2	=2
4AA	4G	4c#	8e
.	.	.	8d
8r	8r	8r	8e
8D	8F#	8d	8f#
8r	8r	8r	8dd
8F#	8A	8d	8cc#
=3	=3	=3	=3
8G	8B	8d	8r
8r	8r	8r	8b
8F#	8F#	8d	8a
8E	8A	8c#	8r
8r	8r	8r	8g
8D	8A	8d	8f#
=4	=4	=4	=4
4.AA	8D	4f#	4a
.	8F#	.	.
.	8G#	8d	8f#
8A	8A	8c#	8e
4r	4r	4r	8a
.	.	.	8g
=5	=5	=5	=5
4D	4A	4d	8f#
.	.	.	8e
8r	8r	8r	8f#
4GG	4B	4e	8g
.	.	.	8f#
8r	8r	8r	8g
=6	=6	=6	=6
4AA	4G	4c#	8e
.	.	.	8d
8r	8r	8r	8e
8D	8F#	8d	8f#
8r	8r	8r	8a
8c#	8e	8g	8a#
=7	=7	=7	=7
8d	8f#	4.f#	8b
8c#	8e	.	8cc#
8B	8d	.	8dd
4.E	8c#	4e	8a
.	8d	.	8b
.	8B	8d	8g#
=8	=8	=8	=8
4AA	4.G#	4.d	4.b
8E	.	.	.
8A	8A	8c#	8a
8c#	8e	4r	4r
8d	8f#	.	.
=9	=9	=9	=9
8e	8g	2r	2r
8B	8d	.	.
8c#	8e	.	.
8d	8f#	.	.
8D	8c	8f#	8a
8D	8B	8g	8b
=10	=10	=10	=10
2D	8A	8a	8cc
.	8B	8e	8g
.	8A	8f#	8a
.	8G	8g	8b
8E	8G	8e	8cc#
8D	8F#	8f#	8dd
=11	=11	=11	=11
4C#	8E	8g	8ee
.	8A	8e	8g
8D	8A	8d	8f#
4.GG	8d	4.B	8b
.	8E	.	8g
.	8G	.	8e
=12	=12	=12	=12
2AA	4F#	8A	4.d
.	.	8B	.
.	8F	8G#	.
.	8E	8A	8c#
4r	4r	4r	8a
.	.	.	8g
=13	=13	=13	=13
2.r	2.r	8r	8f#
.	.	8d	8e
.	.	8c#	8f#
.	.	8B	8g
.	.	8A	8f#
.	.	8B	8g
=14	=14	=14	=14
2.r	8r	8c#	8e
.	8A	8B	8d
.	8G	8c#	8e
.	8F#	4d	8f#
.	8E	.	8g
.	8F#	8c#	8a
=15	=15	=15	=15
8r	4.G	4.B	8a
8E	.	.	8g
8D	.	.	8g
8C#	4.e	4.A	4.g
8BB	.	.	.
8C#	.	.	.
=16	=16	=16	=16
4.D	4.A	[2.d	8f#
.	.	.	8d
.	.	.	8g#
4.FF#	4.D	.	8a
.	.	.	8d
.	.	.	8a#
=17	=17	=17	=17
4.GG	[2.D	4.d]	8b
.	.	.	8d
.	.	.	8b
4.FF#	.	4.a	8cc
.	.	.	8d
.	.	.	8cc
=18	=18	=18	=18
4GG	4D]	4g	8b
.	.	.	8d
8G	8A	8e	8cc#
8F#	8A	8d	8dd
4r	8r	8r	8r
.	8c#	8g	8b
=19	=19	=19	=19
4r	8d	8f#	8a
.	8r	8r	8r
8GG	8B	8e	8g
4.AA	4A	4d	8f#
.	.	.	8a
.	8G	8c#	8c#
=20	=20	=20	=20
4DD	4.G	4.c#	4.e
8AA	.	.	.
8D	8F#	8d	8d
8A	8c#	8a 8ee	8aa 8a
8c#	8c#	8ee 8a	8gg 8a
=21	=21	=21	=21
8d	8d	8ff 8a	8ff 8a
8e	8g	8cc#	8ee 8a
8f	8f	8dd	8dd
4.g	4.b-	[4.dd	8ee
.	.	.	8gg
.	.	.	8ff
=22	=22	=22	=22
4.g#	4.b	4.dd]	8ee
.	.	.	8ff
.	.	.	8dd
8a	8a	16cc#	8cc#
.	.	16A	.
4r	4r	16B	8aa
.	.	16c#	.
.	.	16d	8gg
.	.	16e	.
=23	=23	=23	=23
2.r	16d	16f	8ff
.	16e	16g	.
.	16f	16a	8ddd
.	16d	16f	.
.	16e	16g	8ccc
.	16f	16a	.
.	16g	16b-	16bb-
.	16a	16cc	16aa
.	16b-	16dd	16gg
.	16cc	16ee-	16ff#
.	16b-	16dd	16gg
.	16a	16cc	16aa
=24	=24	=24	=24
2.r	16g	16b-	16bb-
.	16a	16cc	16aa
.	16b-	16dd	16gg
.	16cc	16ee-	16ff#
.	16b-	16dd	16gg
.	16a	16cc	16aa
.	16g	16b-	16bb-
.	16a	16cc	16aa
.	16b-	16dd	16gg
.	16a	16cc	16ff
.	16g	16b-	16ee
.	16f	16a	16dd
=25	=25	=25	=25
2.r	16e	16g	16cc
.	16f	16a	16dd
.	16g	16b-	16ee
.	16f	16a	16dd
.	16g	16b-	16ee
.	16f	16a	16ff
.	16e	16g	16gg
.	16d	16f	16aa
.	16c	16e	16bb-
.	16g	16b-	16ee
.	16a	16cc	16ff
.	16e	16b-	16gg
=26	=26	=26	=26
16FF	4f	8a	8aa
16GG	.	.	.
16AA	.	8ff	8aa
16BB-	.	.	.
16C	2r	8ee	8gg
16C#	.	.	.
16D	.	8r	8r
16E	.	.	.
16F	.	8dd	8ff
16G	.	.	.
16G#	.	8cc	8ee
16A	.	.	.
=27	=27	=27	=27
16B-	4.r	8r	8r
16c	.	.	.
16d	.	8b-	8dd
16e	.	.	.
16f	.	16a	8cc
16e	.	16g	.
4.d	[4.g	4.f	16b
.	.	.	16cc
.	.	.	16dd
.	.	.	16ee
.	.	.	16ff
.	.	.	16b
=28	=28	=28	=28
4.c	2.g]	4.e	16cc
.	.	.	16dd
.	.	.	16ee
.	.	.	16ff
.	.	.	16gg
.	.	.	16aa
4.B-	.	4.e 4.cc	16bb-
.	.	.	16ccc
.	.	.	16ddd
.	.	.	16eee
.	.	.	16fff
.	.	.	16ggg
=29	=29	=29	=29
16A	16c	4.cc 4.f	4.aaa
16B-	16d	.	.
16c	16e	.	.
16d	16f	.	.
16e	16g	.	.
16f	16a	.	.
8B-	8b-	16dd	8ggg
.	.	16b-	.
8c	8cc	8a	8fff
8C	8c	8g	8eee
=30	=30	=30	=30
4F	[2.f	8f	8fff
.	.	8a	8ff
2r	.	8b	8ddd
.	.	8cc	8eee-
.	.	8a	8ff
.	.	8a	8ccc#
=31	=31	=31	=31
2.r	2f_	4b-	8ddd
.	.	.	8dd
.	.	8cc#	8aa
.	.	8dd	8bb-
.	8f]	8b-	8gg
.	8B-	8g	8ee
=32	=32	=32	=32
[2.FF	8A	4f	[2.ff
.	8F	.	.
.	8B	8g	.
.	8c	4a-	.
.	8F	.	.
.	8c#	8a	.
=33	=33	=33	=33
2.FF_	8d	4b-	4ff]
.	8F	.	.
.	8c	8a	8ff#
.	4.B-	4.g	8gg
.	.	.	8bb-
.	.	.	8ee
=34	=34	=34	=34
8FF]	8A	8a	8ff
2r	2r	4.r	8cc
.	.	.	8b-
.	.	.	8a
.	.	8f	8g
8r	8r	8e	8a
=35	=35	=35	=35
2.r	2r	8d	8b-
.	.	8c	8a
.	.	8d	8b-
.	.	8e	8g
.	8c	8d	8f
.	8B-	8e	8g
=36	=36	=36	=36
2r	8A	4f	8a
.	8G	.	8b-
.	8A	8e-	4cc
.	4.F#	4.d	.
8D	.	.	8b-
8C	.	.	8a
=37	=37	=37	=37
8BB-	4G	4d	8g
8AA	.	.	8f#
8BB-	8g	16dd	8g
.	.	16b-	.
8C	4.g	4.a	8a
8BB-	.	.	8ee-
8C	.	.	8dd
=38	=38	=38	=38
4.D	4.f#	4.a	8cc
.	.	.	8b-
.	.	.	8cc
4.E-	4.g	8g	4b-
.	.	8e-	.
.	.	8d	8r
=39	=39	=39	=39
4.E	8G	8c	8r
.	8g	8B	8cc
.	8g	8c	8b-
4.F	4.c	8r	8a
.	.	8f	8g
.	.	8e-	8a
=40	=40	=40	=40
4.F#	8A	8d	8r
.	8a	8c#	8dd
.	8a	8d	8cc
4.G	4.d	8r	8b-
.	.	8g	8a
.	.	8f	8b-
=41	=41	=41	=41
4.G#	8B	8e	8r
.	8b	8d	8ee
.	8b	8e	8dd
8A	8e	8e	8cc#
8r	8r	4r	8a
8B-	8d	.	8g#
=42	=42	=42	=42
8A	8c#	2.r	8r
8r	8r	.	8a
8B-	8d	.	8g#
8A	8c#	.	8r
8r	8r	.	8a
8B-	8d	.	8g#
=43	=43	=43	=43
8A	8c#	4r	8r
2r	8r	.	8a
.	8f	8d	8g#
.	8e	8c#	8r
.	8r	8r	8a
8r	8f	8d	8g#
=44	=44	=44	=44
2.r	8e	8c#	8r
.	8r	8r	8a
.	8f	8d	8g#
.	8e	8c#	8r
.	8r	8r	8a
.	8f	8d	8g#
=45	=45	=45	=45
2.r	8e	8c#	8r
.	8r	8r	8a
.	8f	8d	8g#
.	8e	8c#	8r
.	8r	8r	8a
.	8f	8d	8g#
=46	=46	=46	=46
2.r	8e	8c#	8r
.	8r	8r	8a
.	8f	8d	8g#
.	8e	8c#	8r
.	4r	4r	8a
.	.	.	8g
=47	=47	=47	=47
4D	4A	4d	8f#
.	.	.	8e
8r	8r	8r	8f#
4GG	4B	4e	8g
.	.	.	8f#
8r	8r	8r	8g
=48	=48	=48	=48
4AA	4G	4c#	8e
.	.	.	8d
8r	8r	8r	8e
8D	8F#	8d	8f#
8r	8r	8r	8dd
8F#	8A	8d	8cc#
=49	=49	=49	=49
8G	8B	8d	8r
8r	8r	8r	8b
8F#	8F#	8d	8a
8E	8A	8c#	8r
8r	8r	8r	8g
8D	8A	8d	8f#
=50	=50	=50	=50
4.AA	8D	4f#	4a
.	8F#	.	.
.	8G#	8d	8f#
8A	8A	8c#	8e
4r	4r	16f#	8a
.	.	16A	.
.	.	16e	8g
.	.	16A	.
=51	=51	=51	=51
4D	4A	16e	8f#
.	.	16A	.
.	.	16c#	8e
.	.	16A	.
8r	8r	16d	8f#
.	.	16A	.
4GG	4B	16e	8g
.	.	16B	.
.	.	16d#	8f#
.	.	16B	.
8r	8r	16e	8g
.	.	16B	.
=52	=52	=52	=52
4AA	4G	16c#	8e
.	.	16A	.
.	.	16B	8d
.	.	16A	.
8r	8r	16c#	8e
.	.	16A	.
8D	8F#	8d	8f#
8r	8r	8r	8a
8c#	8e	8g	8a#
=53	=53	=53	=53
8d	8f#	4.f#	16cc#
.	.	.	16b
8c#	8e	.	16dd
.	.	.	16cc#
8B	8d	.	16ee
.	.	.	16dd
4.E	8c#	4e	8a
.	8d	.	8b
.	8B	8d	8g#
=54	=54	=54	=54
4AA	4.G#	4.d	4.b
8E	.	.	.
8A	8A	8c#	8a
8c#	16e	4r	4r
.	16a	.	.
8d	16f#	.	.
.	16a	.	.
=55	=55	=55	=55
8e	16g	2r	2r
.	16a	.	.
8B	16d	.	.
.	16a	.	.
8c#	16e	.	.
.	16a	.	.
8d	16f#	.	.
.	16a	.	.
8D	8c	8f#	16a
.	.	.	16dd
8D	8B	8g	16b
.	.	.	16dd
=56	=56	=56	=56
2D	8A	8a	16cc
.	.	.	16dd
.	8B	8e	16g
.	.	.	16dd
.	8A	8f#	16a
.	.	.	16dd
.	8G	8g	8b
8E	8G	8e	8cc#
8D	8F#	8f#	8dd
=57	=57	=57	=57
4C#	8E	8g	8ee
.	8A	8e	8g
8D	8A	8d	8f#
4.GG	8d	4.B	8b
.	8E	.	16a
.	.	.	16g
.	8G	.	16f#
.	.	.	16e
=58	=58	=58	=58
2AA	4F#	8A	4.d
.	.	8B	.
.	8F	8G#	.
.	8E	8A	8c#
4r	4r	4r	16a
.	.	.	16b
.	.	.	16g
.	.	.	16a
=59	=59	=59	=59
2.r	2.r	8r	8f#
.	.	16d	8e
.	.	16e	.
.	.	16c#	8f#
.	.	16d	.
.	.	8B	8g
.	.	8A	8f#
.	.	8B	8g
=60	=60	=60	=60
2.r	8r	8c#	8e
.	16A	8B	8d
.	16B	.	.
.	16G	8c#	8e
.	16A	.	.
.	8F#	4d	8f#
.	8E	.	8g
.	8F#	8c#	8a
=61	=61	=61	=61
8r	4.G	4.B	8a
16E	.	.	8g
16F#	.	.	.
16D	.	.	8g
16E	.	.	.
8C#	4.e	4.A	4.g
8BB	.	.	.
8C#	.	.	.
=62	=62	=62	=62
4.D	4.A	[2.d	16f#
.	.	.	16e
.	.	.	16f#
.	.	.	16d
.	.	.	8g#
4.FF#	4.D	.	16a
.	.	.	16g#
.	.	.	16a
.	.	.	16d
.	.	.	8a#
=63	=63	=63	=63
4.GG	[2.D	4.d]	16b
.	.	.	16a#
.	.	.	16b
.	.	.	16d
.	.	.	8b
4.FF#	.	4.a	16cc
.	.	.	16b
.	.	.	16cc
.	.	.	16d
.	.	.	8cc
=64	=64	=64	=64
4GG	4D]	4g	16b
.	.	.	16a#
.	.	.	16b
.	.	.	16d
8G	8A	8e	8cc#
8F#	8A	8d	16dd
.	.	.	16ff#
4r	8r	8r	16ee
.	.	.	16dd
.	8c#	8g	16cc#
.	.	.	16b
=65	=65	=65	=65
4r	8d	8f#	16a
.	.	.	16dd
.	8r	8r	16cc#
.	.	.	16b
8GG	8B	8e	16a
.	.	.	16g
4.AA	4A	4d	8f#
.	.	.	8a
.	8G	8c#	8c#
=66	=66	=66	=66
[2BB	4.G	4.c#	4.e
.	4F#	4d	8d
8BB]	.	.	8b
8C#	8A	8e	8e
=67	=67	=67	=67
[2D	2A	4.e	4.g
.	.	4f#	8f#
8D]	8f#	.	8dd
8E	8B	8g#	8g#
=68	=68	=68	=68
2A	4.d	4.g#	4.b
.	8c#	8a	8a
4r	8r	8r	8gg
.	8g	8a	8cc#
=69	=69	=69	=69
2.r	8f#	8r	8dd
.	8r	8cc	8aa
.	8a	8b	8dd#
.	8g	4r	8ee
.	8r	.	8bb
.	8a	8cc	8dd#
=70	=70	=70	=70
2.r	4.g	2.b	8ee
.	.	.	16ccc
.	.	.	16bb
.	.	.	16aa
.	.	.	16gg
.	4.g#	.	8ff#
.	.	.	8ee
.	.	.	8dd
=71	=71	=71	=71
2.r	8a	8a	8cc#
.	8A	8r	8r
.	8a	8a	8cc#
.	8g#	8b	8dd
.	8A	8r	8r
.	8g#	8b	8dd
=72	=72	=72	=72
2.r	8g	8cc#	8ee
.	8A	8r	8r
.	8g	8cc#	8ee
.	8f#	8dd	8ff#
.	8A	8r	8r
.	8f#	8dd#	8ff#
=73	=73	=73	=73
2C#	8e	8ee	8gg
.	8G	8A	8ee
.	8G	8A	8cc#
.	8G	4A	8a
8E	8G	.	8g
8G	8G	8c#	8e
=74	=74	=74	=74
4.AA	4.G	4.e	4.c#
4.r	4.r	4.r	8r
.	.	.	8aa
.	.	.	8gg
=75	=75	=75	=75
8D	2.dd	8a	8ff#
8d	.	8g	8ee
8d	.	8a	8ff#
8d	.	8b	8gg
8d	.	8a	8ff#
8d	.	8b	8gg
=76	=76	=76	=76
8D	4.cc#	8g	8ee
8d	.	8f#	8dd
8d	.	8g	8ee
8d	8dd	8f#	8ff#
8r	8r	8r	8ddd
8F#	8a	8dd	8ccc#
=77	=77	=77	=77
8G	8b	8dd	8r
8r	8r	8r	8bb
8F#	8f#	8dd	8aa
8E	8a	8cc#	8r
8r	8r	8r	8gg
8D	8a	8dd	8ff#
=78	=78	=78	=78
4.AA	8d	4ff#	4aa
.	8f#	.	.
.	8g#	8dd	8ff#
8A	8a	8cc#	8ee
4r	16f#	8a	8aa
.	16A	.	.
.	16e	8g	8gg
.	16A	.	.
=79	=79	=79	=79
8DD	16d	8f#	8ff#
.	16A	.	.
8D	16c#	8e	8ee
.	16A	.	.
8D	16d	8f#	8ff#
.	16A	.	.
8D	16e	8g	8gg
.	16A	.	.
8D	16d	8f#	8ff#
.	16A	.	.
8D	16e	8g	8gg
.	16A	.	.
=80	=80	=80	=80
8DD	16c#	8e	8ee
.	16A	.	.
8D	16B	8d	8dd
.	16A	.	.
8D	16c#	8e	8ee
.	16A	.	.
8D	8d	8f#	8ff#
8r	8r	8r	8aa
8c#	8g	8ee	8aa#
=81	=81	=81	=81
8d	4.f#	8ff#	8bb
8c#	.	8ee	8ccc#
8B	.	8dd	8ddd
4.E	4e	8cc#	8aa
.	.	8dd	8bb
.	8d	8b	8gg#
=82	=82	=82	=82
4AA	4.d	4.g#	4.bb
8E	.	.	.
8A	8c#	8a	8aa
4r	8a	8cc#	8ee
.	8f#	8dd	8ff#
=83	=83	=83	=83
2r	8e	8ee	8gg
.	8g	8b	8dd
.	8e	8cc#	8ee
.	8d	8dd	8ff#
8d	8cc	8ff#	8aa
8d	8b	8gg	8bb
=84	=84	=84	=84
2d	8a	8aa	8ccc
.	8b	8ee	8gg
.	8a	8ff#	8aa
.	8g	8gg	8bb
8e	8g	8ee	8ccc#
8d	8f#	8ff#	8ddd
=85	=85	=85	=85
4c#	8e	8gg	8eee
.	8a	8ee	8gg
8d	8a	8dd	8ff#
4.G	8dd	4.b	8bb
.	8e	.	16aa
.	.	.	16gg
.	8g	.	16ff#
.	.	.	16ee
=86	=86	=86	=86
2A	4f#	8a	4.dd
.	.	8b	.
.	8f	8g#	.
.	8e	8a	8cc#
4r	4r	8ff#	8aa
.	.	8ee	8gg
=87	=87	=87	=87
2.r	8r	8dd	8ff#
.	8b	8cc#	8ee
.	8a	8dd	8ff#
.	8g	8ee	8gg
.	8f#	8ff#	8aa
.	8e	8gg	8bb
=88	=88	=88	=88
2.r	8a	8cc#	8ee
.	8a	8b	8dd
.	8g	8cc#	8ee
.	8f#	4dd	8ff#
.	8e	.	8gg
.	8f#	8cc#	8aa
=89	=89	=89	=89
8r	4.g	4.b	8aa
8e	.	.	8gg
8d	.	.	8gg
8c#	4ee	8a	4gg
8A	.	8cc#	.
8d	8dd	8dd	8ff#
=90	=90	=90	=90
4.G	4g	4b	8ee
.	.	.	8gg
.	8e	8g	8bb
4.A	4a	8f#	8dd
.	.	8g	8ee
.	8g	8e	8cc#
=91	=91	=91	=91
8d	8f#	8f#	8dd
8D	8D	8r	8r
8d	8D	8f#	8dd
8c#	[4.D	8g	8ee
8D	.	8r	8r
8c#	.	8g	8ee
=92	=92	=92	=92
8c	2.D]	8a	8ff#
8D	.	8r	8r
8c	.	8a	8ff#
8B	.	8b	8gg
8D	.	8r	8r
8B	.	8b	8gg
=93	=93	=93	=93
8B-	4.f	8dd	8gg#
8D	.	8r	8r
8B-	.	8d	8gg#
8A	4.f#	8dd	8aa
8D	.	8r	8r
8A	.	8d	8aa
=94	=94	=94	=94
4.G#	4.f	4.dd	4.bb
4.r	4.r	4.r	4r
.	.	.	8bb
=95	=95	=95	=95
4A	4d	4f#	16aa
.	.	.	16ddd
.	.	.	16ccc#
.	.	.	16bb
8r	8r	8r	16aa
.	.	.	16gg
4A	4d	4f#	16ff#
.	.	.	16bb
.	.	.	16aa
.	.	.	16gg
8r	8r	8r	16ff#
.	.	.	16ee
=96	=96	=96	=96
4A	4d	4f#	16dd
.	.	.	16ff#
.	.	.	16ee
.	.	.	16dd
8r	8r	8r	16cc#
.	.	.	16b
4A	4c# 4e	4g	16a
.	.	.	16b
.	.	.	16a
.	.	.	16g
8r	8r	8r	16f#
.	.	.	16e
=97	=97	=97	=97
4D	4d	4f#	16d
.	.	.	16f#
.	.	.	16e
.	.	.	16d
8r	8G	8r	16c#
.	.	.	16B
4D	4F#	4f#	16A
.	.	.	16f#
.	.	.	16e
.	.	.	16d
8r	8G	8r	16c#
.	.	.	16B
=98	=98	=98	=98
4D	4.F#	4.A	16A
.	.	.	16g
.	.	.	16f#
.	.	.	16e
8r	.	.	16d
.	.	.	16c#
4D	4.G	4.B	16B
.	.	.	16a
.	.	.	16g
.	.	.	16f#
8r	.	.	16e
.	.	.	16d
=99	=99	=99	=99
4D	4.G	4.e 4.c#	16c#
.	.	.	16b
.	.	.	16a
.	.	.	16g
8r	.	.	16f#
.	.	.	16e
4D	4.F#	4.A 4.f#	16d
.	.	.	16ff#
.	.	.	16ee
.	.	.	16dd
8r	.	.	16cc#
.	.	.	16b
=100	=100	=100	=100
4.BB	4.d	4.g#	16a
.	.	.	16g#
.	.	.	16f#
.	.	.	16e
.	.	.	16f#
.	.	.	16d
16AA	16e	16a	16c#
16A	16a	16a	16a
16G#	16g#	16g#	16g#
16F#	16f#	16f#	16f#
16E	16e	16e	16e
16D	16d	16d	16d
=101	=101	=101	=101
16C#	16c#	16c#	16c#
16F#	16f#	16f#	16f#
16E	16e	16e	16e
16D	16d	16d	16d
16C#	16c#	16c#	16c#
16BB	16B	16B	16B
[4.AA	4A	8A	4A
.	.	8a	.
.	8r	8g	8r
=102	=102	=102	=102
2.AA_	2.r	8f#	8r
.	.	8e	8dd
.	.	8f#	8cc#
.	.	8g	8b
.	.	8f#	8a
.	.	8g	8b
=103	=103	=103	=103
2.AA_	8r	8e	8cc#
.	8A	8d	8b
.	8G	8e	8cc#
.	8F#	8f#	4dd
.	8E	8g	.
.	8F#	8a	8cc#
=104	=104	=104	=104
2AA]	8G	8a	4.b
.	8E	8g	.
.	8D	8g	.
.	8C#	8g	8a
8AA	8c#	8f#	8a
8GG	8c#	8e	8a
=105	=105	=105	=105
8FF#	4.c	4.d#	4.a
8EE	.	.	.
8FF#	.	.	.
8GG	4B	[4.e	8g
8EE	.	.	8g
8DD	8B-	.	8g
=106	=106	=106	=106
8CC#	4.A	8e]	4g
8C#	.	8e	.
8D	.	8d	8f#
4GG	4g	8B	8e
.	.	8b	8ee
8AA	8e	8g	8cc#
=107	=107	=107	=107
8FF#	8d	8a	16ddd
.	.	.	16ccc#
2r	8r	8r	16bb
.	.	.	16aa
.	8f#	8a	16gg
.	.	.	16ff#
.	8g	8b	16ee
.	.	.	16bb
.	8r	8r	16aa
.	.	.	16gg
8G	8B	8e	16ff#
.	.	.	16ee
=108	=108	=108	=108
8A	8d	8f#	16dd
.	.	.	16ff#
8r	8r	8r	16ee
.	.	.	16dd
8G#	8d	8f	16cc#
.	.	.	16b
8A	8f#	8d	16a
.	.	.	16b
8r	8r	8r	16a
.	.	.	16g
8AA	8G	8c#	16f#
.	.	.	16e
=109	=109	=109	=109
8FF#	8F#	8a	16ddd
.	.	.	16ccc#
2r	8r	8r	16bb
.	.	.	16aa
.	8f#	8a	16gg
.	.	.	16ff#
.	8g	8b	16ee
.	.	.	16bb
.	8r	8r	16aa
.	.	.	16gg
8G	8B	8e	16ff#
.	.	.	16ee
=110	=110	=110	=110
8A	8d	8f#	16dd
.	.	.	16ff#
8r	8r	8r	16ee
.	.	.	16dd
8G#	8d	8f	16cc#
.	.	.	16b
8A	8f#	8d	16a
.	.	.	16b
8r	8r	8r	16a
.	.	.	16g
8AA	8A	8c#	16f#
.	.	.	16e
=111	=111	=111	=111
16D	16d	16d	16d
16E	16e	16e	16e
16F#	16f#	16f#	16f#
16AA	16A	16A	16A
16BB	16B	16B	16B
16C#	16c#	16c#	16c#
16D	16d	16d	16d
16E	16e	16e	16e
16F#	16f#	16f#	16f#
16AA	16A	16A	16A
16BB	16B	16B	16B
16C#	16c#	16c#	16c#
=112	=112	=112	=112
16D	16d	16d	16d
16E	16e	16e	16e
16F#	16f#	16f#	16f#
16BB	16B	16B	16B
16C#	16c#	16c#	16c#
16D	16d	16d	16d
16E	16e	16e	16e
16F#	16f#	16f#	16f#
16G	16g	16g	16g
16C#	16c#	16c#	16c#
16D	16d	16d	16d
16E	16e	16e	16e
=113	=113	=113	=113
16F#	16f#	16f#	16f#
16G	16g	16g	16g
16A	16a	16a	16a
16D	16d	16d	16d
16E	16e	16e	16e
16F#	16f#	16f#	16f#
16G	16g	16g	16g
16A	16a	16a	16a
16B	16b	16b	16b
16c#	16cc#	16cc#	16cc#
16d	16dd	16dd	16dd
16e	16ee	16ee	16ee
=114	=114	=114	=114
8f#	8ff#	8ff#	8ff#
8d	8dd	8dd	8dd
8B	8b	8b	8b
8G	8g	8g	8g
8E	8e	8e	8e
8A	8a	8a	8a
=115	=115	=115	=115
8D	8d	8d	8d
8F#	8f#	8f#	8f#
8A	8a	8a	8a
8d	8dd	8dd	8dd
8A	8a	8ff#	8ff#
8F#	8f#	8aa	8aa
=116	=116	=116	=116
4D	4d	4ff#	4ddd
8r	8r	8r	8r
4DD	4D 4A 4d	4ff# 4a 4d	4ff# 4ddd 4d
8r	8r	8r	8r
=117	=117	=117	=117
4DD	4A 4D 4d	4ff# 4d 4a	4ddd 4ff# 4d
2r	2r	2r	2r
==	==	==	==
*-	*-	*-	*-
!!!RWG1: This file contains only pitch and duration data.
!!!RWG2: Transposing instruments are not transposed.
!!!RWG3: Spines may have incompatible meters.
!!!RWG4: Durations of rests and tied notes may be interpreted.
!!!RWG: Key is interpreted using the Humdrum key tool.
!!!GTL: 6 Quartetti ("Apponyi")
!!!AFT: stage1
!!!END: 1997/04/15
!!!KEY: 1255687202
!!!EMD: Converted from MuseData to Humdrum Dec 16, 2000, by Andreas Kornstaedt using muse2kern.
!!!EMD: Manual editing by Craig Sapp, Nov 2001
